usr/share/icons/biglinux-icons-material/22/actions/edit-text-frame-update.svg

<svg xmlns="http://www.w3.org/2000/svg" viewBox="0 0 22 22">
  <defs id="defs3051">
    <style type="text/css" id="current-color-scheme">
      .ColorScheme-Text {
        color:#dedede;
      }
      .ColorScheme-Highlight {
        color:#3daee9;
      }
      </style>
  </defs>
 <path 
    style="fill:currentColor;fill-opacity:1;stroke:none" 
     d="m 9,3 0,1 8,0 0,10 -4,0 0,1 0,3 -8,0 0,-10 -1,0 0,11 1,0 8,0 1,0 0,-0.0098 L 14.007812,19 18,15.007812 18,15 18,13.59375 18,3 17,3 9,3 m 0,3 0,1 6,0 0,-1 -6,0 m -2,3 0,1 8,0 0,-1 -8,0 m 0,3 0,1 8,0 0,-1 -8,0 m 0,3 0,1 4,0 0,-1 -4,0" 
    class="ColorScheme-Text"
    />  
  <path
     style="fill:currentColor;fill-opacity:1;stroke:none" 
      class="ColorScheme-Highlight"
     d="M 3,3 5,6 7,3 Z" />
</svg>

<svg xmlns="http://www.w3.org/2000/svg" viewBox="0 0 22 22"><path d="M9 3v1h8v10h-4v4H5V8H4v11h10v-.01l.008.01L18 15.008V3H9m0 3v1h6V6H9M7 9v1h8V9H7m0 3v1h8v-1H7m0 3v1h4v-1H7" style="fill:currentColor;fill-opacity:1;stroke:none;color:#dedede"/><path d="m3 3 2 3 2-3Z" style="fill:currentColor;fill-opacity:1;stroke:none;color:#3daee9"/></svg>
